svg/file/news_2_fill.svg

<svg xmlns="http://www.w3.org/2000/svg" width="24" height="24" viewBox="0 0 24 24"><g fill="none"><path d="M24,0 L24,24 L0,24 L0,0 L24,0 Z M12.5935,23.2578 L12.5819,23.2595 L12.5109,23.295 L12.4919,23.2987 L12.4767,23.295 L12.4057,23.2595 C12.3958,23.2564 12.387,23.259 12.3821,23.2649 L12.378,23.2758 L12.3609,23.7031 L12.3659,23.7235 L12.3769,23.7357 L12.4805,23.8097 L12.4953,23.8136 L12.5071,23.8097 L12.6107,23.7357 L12.6233,23.7197 L12.6267,23.7031 L12.6096,23.2758 C12.6076,23.2657 12.601,23.2593 12.5935,23.2578 Z M12.8584,23.1453 L12.8445,23.1473 L12.6598,23.2397 L12.6499,23.2499 L12.6472,23.2611 L12.6651,23.6906 L12.6699,23.7034 L12.6784,23.7105 L12.8793,23.8032 C12.8914,23.8069 12.9022,23.803 12.9078,23.7952 L12.9118,23.7812 L12.8777,23.1665 C12.8753,23.1546 12.8674,23.147 12.8584,23.1453 Z M12.143,23.1473 C12.1332,23.1424 12.1222,23.1453 12.1156,23.1526 L12.1099,23.1665 L12.0758,23.7812 C12.0751,23.7927 12.0828,23.8019 12.0926,23.8046 L12.1083,23.8032 L12.3092,23.7105 L12.3186,23.7024 L12.3225,23.6906 L12.3404,23.2611 L12.3372,23.2485 L12.3278,23.2397 L12.143,23.1473 Z"/><path fill="#09244B" d="M20,3 C20.51285,3 20.9355092,3.38604429 20.9932725,3.88337975 L21,4 L21,18 C21,19.597725 19.7511226,20.903664 18.1762773,20.9949075 L18,21 L5.5,21 C4.1745184,21 3.08996147,19.9684531 3.00531769,18.6643744 L3,18.5 L3,11 C3,10.48715 3.38604429,10.0644908 3.88337975,10.0067275 L4,10 L6,10 L6,4 C6,3.48716857 6.38604429,3.06449347 6.88337975,3.0067278 L7,3 L20,3 Z M6,12 L5,12 L5,18.5 C5,18.7761 5.22386,19 5.5,19 C5.74545778,19 5.9496079,18.8230914 5.99194425,18.5898645 L6,18.5 L6,12 Z M15,14 L10,14 C9.44772,14 9,14.4477 9,15 C9,15.5523 9.44772,16 10,16 L15,16 C15.5523,16 16,15.5523 16,15 C16,14.4477 15.5523,14 15,14 Z M17,7 L10,7 C9.48716857,7 9.06449347,7.38604429 9.0067278,7.88337975 L9,8 L9,11 C9,11.51285 9.38604429,11.9355092 9.88337975,11.9932725 L10,12 L17,12 C17.51285,12 17.9355092,11.613973 17.9932725,11.1166239 L18,11 L18,8 C18,7.48716857 17.613973,7.06449347 17.1166239,7.0067278 L17,7 Z M16,9 L16,10 L11,10 L11,9 L16,9 Z"/></g></svg>

<svg xmlns="http://www.w3.org/2000/svg" width="24" height="24"><g fill="none"><path d="M24 0v24H0V0zM12.594 23.258l-.012.002-.071.035-.02.004-.014-.004-.071-.036c-.01-.003-.019 0-.024.006l-.004.01-.017.428.005.02.01.013.104.074.015.004.012-.004.104-.074.012-.016.004-.017-.017-.427c-.002-.01-.009-.017-.016-.018m.264-.113-.014.002-.184.093-.01.01-.003.011.018.43.005.012.008.008.201.092c.012.004.023 0 .029-.008l.004-.014-.034-.614c-.003-.012-.01-.02-.02-.022m-.715.002a.023.023 0 0 0-.027.006l-.006.014-.034.614c0 .012.007.02.017.024l.015-.002.201-.093.01-.008.003-.011.018-.43-.003-.012-.01-.01z"/><path fill="#09244B" d="M20 3a1 1 0 0 1 .993.883L21 4v14a3 3 0 0 1-2.824 2.995L18 21H5.5a2.5 2.5 0 0 1-2.495-2.336L3 18.5V11a1 1 0 0 1 .883-.993L4 10h2V4a1 1 0 0 1 .883-.993L7 3zM6 12H5v6.5a.5.5 0 0 0 .992.09L6 18.5zm9 2h-5a1 1 0 1 0 0 2h5a1 1 0 1 0 0-2m2-7h-7a1 1 0 0 0-.993.883L9 8v3a1 1 0 0 0 .883.993L10 12h7a1 1 0 0 0 .993-.883L18 11V8a1 1 0 0 0-.883-.993zm-1 2v1h-5V9z"/></g></svg>
